icons/night/conf.svg

<svg width="16" height="16" viewBox="0 0 16 16" fill="none" xmlns="http://www.w3.org/2000/svg">
<path d="M8 10C9.10457 10 10 9.10457 10 8C10 6.89543 9.10457 6 8 6C6.89543 6 6 6.89543 6 8C6 9.10457 6.89543 10 8 10Z" fill="#E0AF68"/>
<path d="M8 4.5C8.92826 4.5 9.8185 4.86875 10.4749 5.52513C11.1313 6.1815 11.5 7.07174 11.5 8C11.5 8.69223 11.2947 9.36892 10.9101 9.9445C10.5256 10.5201 9.97893 10.9687 9.33939 11.2336C8.69985 11.4985 7.99612 11.5678 7.31718 11.4327C6.63825 11.2977 6.01461 10.9644 5.52513 10.4749C5.03564 9.98539 4.7023 9.36175 4.56725 8.68282C4.4322 8.00388 4.50151 7.30015 4.76642 6.66061C5.03133 6.02107 5.47993 5.47444 6.0555 5.08986C6.63107 4.70527 7.30776 4.5 8 4.5ZM8 2C7.66469 2.00104 7.3301 2.03115 7 2.09L6.34 4L4.55 3.1C4.2644 3.29189 3.99963 3.51309 3.76 3.76C3.51309 3.99963 3.29189 4.2644 3.1 4.55L4 6.34L2.09 7C1.97696 7.66187 1.97696 8.33813 2.09 9L4 9.66L3.1 11.45C3.49467 12.0145 3.98547 12.5053 4.55 12.9L6.34 12L7 13.91C7.68142 14.03 8.37857 14.03 9.06 13.91L9.66 12L11.45 12.89C12.0145 12.4953 12.5053 12.0045 12.9 11.44L12 9.66L13.91 9C14.03 8.31857 14.03 7.62143 13.91 6.94L12 6.34L12.89 4.55C12.6981 4.2644 12.4769 3.99963 12.23 3.76C11.9904 3.51309 11.7256 3.29189 11.44 3.1L9.66 4L9 2.09C8.66989 2.03115 8.33531 2.00104 8 2Z" fill="#E0AF68"/>
</svg>

<svg xmlns="http://www.w3.org/2000/svg" id="Calque_1" data-name="Calque 1" viewBox="0 0 16 16"><defs><style
    >.cls-1{fill:#e0af68}</style></defs><circle cx="8" cy="8" r="2" class="cls-1" /><path
    d="M8 4.5A3.5 3.5 0 0 1 11.5 8 3.5 3.5 0 1 1 8 4.5M8 2a5.8 5.8 0 0 0-1 .09L6.34 4l-1.79-.9a4.94 4.94 0 0 0-.79.66 4.94 4.94 0 0 0-.66.79L4 6.34 2.09 7a5.94 5.94 0 0 0 0 2L4 9.66l-.9 1.79a5.88 5.88 0 0 0 1.45 1.45l1.79-.9.66 1.91a5.94 5.94 0 0 0 2.06 0l.6-1.91 1.79.89a5.88 5.88 0 0 0 1.45-1.45L12 9.66 13.91 9a5.94 5.94 0 0 0 0-2.06L12 6.34l.89-1.79a4.94 4.94 0 0 0-.66-.79 4.94 4.94 0 0 0-.79-.66L9.66 4 9 2.09A5.8 5.8 0 0 0 8 2"
    class="cls-1"
  /></svg>
